assets/images/icons/osk-delete.svg

<?xml version="1.0" encoding="UTF-8" standalone="no"?>
<svg width="48px" height="48px" viewBox="0 0 48 48" version="1.1" xmlns="http://www.w3.org/2000/svg" xmlns:xlink="http://www.w3.org/1999/xlink">
    <!-- Generator: sketchtool 39.1 (31720) - http://www.bohemiancoding.com/sketch -->
    <title>7D43BFD7-E509-4B6F-B2CC-826C6D5E292D</title>
    <desc>Created with sketchtool.</desc>
    <defs>
        <rect id="path-1" x="0" y="0" width="600" height="956" fill="none"></rect>
    </defs>
    <g id="Page-1" stroke="none" stroke-width="1" fill="none" fill-rule="evenodd">
        <g id="Math-Input" transform="translate(-250.000000, -1146.000000)"></g>
        <g id="Asset-Sheet" transform="translate(-50.000000, -50.000000)">
            <g id="math_keypad_icon_delete" transform="translate(50.000000, 50.000000)">
                <rect id="bounds" fill-opacity="0" fill="#FF0088" fill-rule="evenodd" x="0" y="0" width="48" height="48"></rect>
                <path d="M13,24 L13,24 L19,30 L33,30 L33,18 L19,18 L13,24 Z M11.5857864,22.5857864 L11.5857864,22.5857864 L17.5857864,16.5857864 C17.9608592,16.2107137 18.469567,16 19,16 L33,16 C34.1045695,16 35,16.8954305 35,18 L35,30 C35,31.1045695 34.1045695,32 33,32 L19,32 C18.469567,32 17.9608592,31.7892863 17.5857864,31.4142136 L11.5857864,25.4142136 C10.8047379,24.633165 10.8047379,23.366835 11.5857864,22.5857864 L11.5857864,22.5857864 Z" id="outline" fill="#888D93" fill-rule="evenodd"></path>
                <path d="M23,21 L29,27" id="slash" stroke="#888D93" stroke-width="2" stroke-linecap="round" stroke-linejoin="round"></path>
                <path d="M23,21 L29,27" id="slash" stroke="#888D93" stroke-width="2" stroke-linecap="round" stroke-linejoin="round" transform="translate(26.000000, 24.000000) scale(-1, 1) translate(-26.000000, -24.000000) "></path>
            </g>
        </g>
        <g id="Math-Input" transform="translate(-250.000000, -1146.000000)">
            <g id="Asset-Sheet" transform="translate(200.000000, 1096.000000)">
                <mask id="mask-2" fill="white">
                    <use xlink:href="#path-1"></use>
                </mask>
                <use id="Mask" fill="#FAFAFA" xlink:href="#path-1"></use>
                <g id="math_keypad_icon_delete" mask="url(#mask-2)">
                    <g transform="translate(50.000000, 50.000000)">
                        <rect id="bounds" stroke="none" fill-opacity="0" fill="#FF0088" fill-rule="evenodd" x="0" y="0" width="48" height="48"></rect>
                        <path d="M13,24 L13,24 L19,30 L33,30 L33,18 L19,18 L13,24 Z M11.5857864,22.5857864 L11.5857864,22.5857864 L17.5857864,16.5857864 C17.9608592,16.2107137 18.469567,16 19,16 L33,16 C34.1045695,16 35,16.8954305 35,18 L35,30 C35,31.1045695 34.1045695,32 33,32 L19,32 C18.469567,32 17.9608592,31.7892863 17.5857864,31.4142136 L11.5857864,25.4142136 C10.8047379,24.633165 10.8047379,23.366835 11.5857864,22.5857864 L11.5857864,22.5857864 Z" id="outline" stroke="none" fill="#888D93" fill-rule="evenodd"></path>
                        <path d="M23,21 L29,27" id="slash" stroke="#888D93" stroke-width="2" stroke-linecap="round" stroke-linejoin="round" fill="none"></path>
                        <path d="M23,21 L29,27" id="slash" stroke="#888D93" stroke-width="2" stroke-linecap="round" stroke-linejoin="round" fill="none" transform="translate(26.000000, 24.000000) scale(-1, 1) translate(-26.000000, -24.000000) "></path>
                    </g>
                </g>
            </g>
        </g>
    </g>
</svg>

<svg xmlns="http://www.w3.org/2000/svg" xmlns:xlink="http://www.w3.org/1999/xlink" width="48" height="48" xmlns:v="https://vecta.io/nano"><defs><path id="A" fill="none" d="M0 0h600v956H0z"/><path id="B" d="M13 24h0l6 6h14V18H19l-6 6zm-1.414-1.414h0l6-6A2 2 0 0 1 19 16h14a2 2 0 0 1 2 2v12a2 2 0 0 1-2 2H19a2 2 0 0 1-1.414-.586l-6-6a2 2 0 0 1 0-2.828h0z"/></defs><g fill="none" fill-rule="evenodd"><path fill-opacity="0" fill="#f08" d="M0 0h48v48H0z"/><use xlink:href="#B" fill="#888d93"/><g stroke="#888d93" stroke-width="2" stroke-linecap="round" stroke-linejoin="round"><path d="M23 21l6 6"/><path d="M29 21l-6 6"/></g><g transform="translate(-50 -50)"><mask id="C" fill="#fff"><use xlink:href="#A"/></mask><use fill="#fafafa" xlink:href="#A"/><g mask="url(#C)"><g transform="translate(50 50)"><path fill-opacity="0" fill="#f08" d="M0 0h48v48H0z"/><use xlink:href="#B" fill="#888d93"/><g stroke="#888d93" stroke-width="2" stroke-linecap="round" stroke-linejoin="round"><path d="M23 21l6 6"/><path d="M23 21l6 6" transform="matrix(-1 0 0 1 52 0)"/></g></g></g></g></g></svg>
